dist/assets/images/lightbox-close.svg

<?xml version="1.0" encoding="UTF-8"?>
<svg width="24px" height="24px" viewBox="0 0 24 24" version="1.1" xmlns="http://www.w3.org/2000/svg" xmlns:xlink="http://www.w3.org/1999/xlink">
    <!-- Generator: Sketch 41.2 (35397) - http://www.bohemiancoding.com/sketch -->
    <title>Fill 1</title>
    <desc>Created with Sketch.</desc>
    <defs></defs>
    <g id="_Modal" stroke="none" stroke-width="1" fill="none" fill-rule="evenodd">
        <g id="iPad-Pro-Landscape" transform="translate(-1123.000000, -139.000000)" fill="#000000">
            <g id="Group" transform="translate(213.000000, 133.000000)">
                <g id="Page-1" transform="translate(910.000000, 6.000000)">
                    <path d="M17.0068531,15.0456503 L15.0551329,16.9966993 L11.9675245,13.9102657 L8.86027972,17.018014 L6.90788811,15.0657902 L10.0151329,11.9578741 L6.90855944,8.85012587 L8.86027972,6.89907692 L11.9675245,10.0056503 L15.0544615,6.91921678 L17.0068531,8.87144056 L13.9197483,11.9578741 L17.0068531,15.0456503 Z M11.957958,0 C5.3540979,0 -8.39160839e-05,5.35451748 -8.39160839e-05,11.958042 C-8.39160839e-05,18.5625734 5.3540979,23.9172587 11.957958,23.9172587 C18.561986,23.9172587 23.916,18.5625734 23.916,11.9578741 C23.916,5.35451748 18.561986,0 11.957958,0 L11.957958,0 Z" id="Fill-1"></path>
                </g>
            </g>
        </g>
    </g>
</svg>

<svg width="24" height="24" viewBox="0 0 24 24" xmlns="http://www.w3.org/2000/svg"><title>Fill 1</title><path d="M17.007 15.046l-1.952 1.95-3.087-3.086-3.108 3.108-1.952-1.952 3.107-3.108L6.91 8.85 8.86 6.9l3.108 3.106 3.086-3.087 1.953 1.952-3.087 3.087 3.087 3.088zM11.958 0C5.354 0 0 5.355 0 11.958c0 6.605 5.354 11.96 11.958 11.96s11.958-5.355 11.958-11.96C23.916 5.355 18.562 0 11.958 0z" fill-rule="evenodd"/></svg>
